X: 130133
T: Miss Breen's Hotel 
N: 090
C: BB
R: hornpipe
Q: 1/8=320
M: C|
L: 1/8
K: A
(3efg|"A"aece BeAe|"A"aece BeAe|"E"GABc "D"dcde|"E7"gfed "C#m"cdeg|
"A"aece BeAe|"A"aece Be A2|"E"GBdB "F#m"ceaf|"E7"(3efe (3dcB "A"A2 :|
(3FGA|"E"BGEG "D"AFDF|"E7"EFED "A"CE (3ABc|"E7"dBGE "A"ecAG|"D"FEFA "E"B2 (3Bcd|
"E"BGEG "D"AFDF|"E7"EFED "A"CE (3ABc|"E7"dBGE "A"ecAG|"D"(3Fdc "E"(3BAG "A"A2 :|
